X:1
T:Title
%%score ( 1 2 ) { ( 3 5 ) | 4 }
L:1/8
M:4/4
K:C
V:1 treble nm="Bright Piano"
V:2 treble 
V:3 bass nm="Bright Piano"
V:5 bass 
V:4 bass 
V:1
 z4 z2[Q:1/4=100] C2 | [CG]2 [CG]2 [CA]2 [FB]2 | [Ec]4 z2 [Ec]2 | [Dc]2 [DB]2 A-[CA] [B,G]2 | %4
 [EA]2 [^FA]2 [DG]2 [EG]2 | [Ec]2 [CG]2 [CA]2 [CE]2 | [DF]2 [B,D]2 C2 [CE]2 | %7
 [DG]2 F-[DF] [CE]2 [B,D]2 | C4 z2 C2 | [CG]2 [CG]2 [CA]2 [FB]2 | [Ec]4 z2 [EG]2 | %11
 [Ec]2 [DB]2 [Cc]2 [Ge]2 | [Ad]2 d-[Fd] [Ec]2 [EG]2 | [CG]2 [CE]2 [CA]2 [CG]2 | F2 z2 z4 | %15
 [CA]2 [Cc]2 [CE]2 [B,D]2 |[M:3/4] C4 z2 |] %17
V:2
 x8 | x8 | x8 | z4 .D2 z2 | x8 | x8 | x8 | z2 .C2 z4 | x8 | x8 | x8 | x8 | z2 .G2 z4 | x8 | %14
 CB, [CE]2 [B,D]2 [CG]2 | x8 |[M:3/4] x6 |] %17
V:3
 z4 z2 C,2 | E,2 E,2 F,2 G,2 | G,4 z2 G,2 | ^F,2 G,2 F,2 E,2 | C2 C2 B,2 C2 | %5
 G,2[K:bass] E,2 F,2 G,2 | z2 G,2 z4 | G,2 A,G, G,2 G,F, | E,4 z2 C,2 | E,2 E,2 F,2 G,2 | %10
 G,4 z2 C2 | G,2 G,2 G,2 C2 | C2 B,2 G,2 C2 | C2 G,2 F,2 G,2 | G,2 G,2 G,2 E,2 | F,2 G,2 G,2 G,F, | %16
[M:3/4] E,4 z2 |] %17
V:4
 z8 | C,2 C,2 z2 D,2 | C,4 z2 C,2 | A,,2 G,,2 D,2 z2 | C,2 D,2 G,,2 C,2 | C,2 C,2 z2 C,2 | %6
 F,2 z2 C,2 C,2 | B,,2 A,,B,, C,2 G,,2 | C,4 z4 | C,2 C,2 z2 D,2 | C,4 z2 C,2 | C,2 F,2 E,2 C,2 | %12
 F,2 G,,2 C,2 C,2 | E,2 C,2 z2 E,2 | D,2 C,2 G,,2 C,2 | z2 E,2 z2 G,,2 |[M:3/4] C,4 z2 |] %17
V:5
 x8 | x8 | x8 | x8 | x8 | x2[K:bass] x6 | A,2 z F, E,2 G,2 | x8 | x8 | x8 | x8 | x8 | x8 | x8 | %14
 x8 | x8 |[M:3/4] x6 |] %17

